X:50
M:6/8
L:1/8
Q:3/8=50
K:D
d/>B/|AFF D>F F/G/|A>BA/G/ F2 d/>B/|AFF F>EF/G/|FB>A B>cd/>G/|
d'/c'/b/a/g/f/ b/a/g/f/e/d/|a>ba/g/ f2 d/e/|f>ed/c/ dB/A/G/^E/|
fB>^A B2 B/c/|d/c/B/A/G/F/ B/A/G/F/E/D/|A>BA/G/ F2 D/>E/|

